X: 21741
Q: "Slow."
M: 3/4
L: 1/8
K: A
|:\
{AB}c4 B2 | c>BA>B c2 | (E2 A2) (B/c/d) | (d2c2) B2 |\
{d}c>BA>B c2 | E>DC>D E2 | (F2A2) G2 | A6 :|\
c>BA>B c2 | E>DC>D E2 | (F2A2) (Bc/d/) |
(d2c2) B2 |\
c>BA>B c2 | E>DC>D E2 | (F2A2) G2 | "^D.C."A4 |]\
c>BA>B c2 |
E>DC>D E2 | (F2A2) G2 | "^Fin."A6 H|]\
c>BA>B {AB}c2 | E>DC>D E2 | F2A2 (Bc/d/) | (d2c2) B2 |\
{d}c>BA>B {AB}c2 | E>DC>D E2 | (F2A2) G2 | "^D.C."A4 |]


